X:248
T:La Bastringue
Z:Nigel Gatherer
Z:Jack Campin, http://www.campin.me.uk/
F:Jack Campin's Nine-Note Tunebook
% last edit 03-02-2013
G:reel from Quebec
M:C|
L:1/8
Q:1/2=108
K:F
C2|A3 A A2BA| G2E2 F4  |E2F2 GAGE|F2G2 A2F2|
   A3 A A2BA| G2E2 F4  |B2A2 G2F2|D2E2 F2 :|
C2|F2AF cFAF|_E2GE BEGE|F2AF cFAc|dBGE FEDC|
   F2AF cFAF|_E2GE BEGE|F2AF cFAc|dBGE F2 :|

